X:295
T:Atholl Braes #2
D:Silly Wizard, Silly Wizard (1976)
O:Scotland
Z:Nigel Gatherer <gatherer@argonet.co.uk>
M:4/4
L:1/8
K:A
z|A2 AB d2 df|edef efBd|A2 AB d2 df|edef d2:|
ef|g2 bg f2 af|edef edBd|g2 bg f2 af|edef d2 ef|
g2 bg f2 af|edef edBd|A2 AB d2 df|edef d2|]
<end>
<start>
